chrome/img/svgs/contacts-icon.svg

<?xml version="1.0" encoding="UTF-8"?>
<svg width="217px" height="227px" viewBox="0 0 217 227" version="1.1" xmlns="http://www.w3.org/2000/svg" xmlns:xlink="http://www.w3.org/1999/xlink">
    <!-- Generator: Sketch 42 (36781) - http://www.bohemiancoding.com/sketch -->
    <title>contacts-icon</title>
    <desc>Created with Sketch.</desc>
    <defs>
        <radialGradient cx="50%" cy="0%" fx="50%" fy="0%" r="233.931224%" id="radialGradient-1">
            <stop stop-color="#FFFFFF" offset="0%"></stop>
            <stop stop-color="#FAFAFA" offset="9.21513762%"></stop>
            <stop stop-color="#FAFAFA" offset="9.21513762%"></stop>
            <stop stop-color="#FFFFFF" offset="23.3723474%"></stop>
            <stop stop-color="#31A217" offset="100%"></stop>
        </radialGradient>
        <path d="M171.496875,2.03869258 L18.4666667,2.03869258 C10.5552083,2.03869258 4,8.61090358 4,16.5428824 L4,206.23049 C4,214.162468 10.5552083,220.734679 18.4666667,220.734679 L171.496875,220.734679 C179.408333,220.734679 185.963542,214.162468 185.963542,206.23049 L185.963542,206.23049 L185.963542,19.7156739 L185.963542,19.7156739 L185.963542,16.5428824 C185.963542,8.61090358 179.408333,2.03869258 171.496875,2.03869258 Z M150.701042,164.530944 C150.701042,167.25048 148.440625,169.516759 145.728125,169.516759 L102.328125,169.516759 L87.6354167,169.516759 L44.4614583,169.516759 C41.7489583,169.516759 39.4885417,167.25048 39.4885417,164.530944 L39.4885417,153.87943 C39.4885417,150.48001 41.0708333,147.307219 43.5572917,145.267567 C57.7979167,133.482913 73.16875,125.777562 76.1072917,124.191166 C76.559375,123.964538 76.559375,123.73791 76.559375,123.284654 L76.559375,112.406512 C74.9770833,109.460348 73.846875,106.514185 73.3947917,103.794649 C72.2645833,103.794649 70.6822917,101.981625 68.8739583,95.8626704 C66.6135417,88.1573195 68.6479167,86.5709238 70.6822917,86.5709238 C70.45625,85.8910399 70.2302083,85.211156 70.2302083,84.5312721 L70.2302083,84.5312721 C69.5520833,80.6785967 69.3260417,77.0525492 70.2302083,73.6531297 C71.3604167,69.1205704 73.846875,65.267895 76.559375,62.3217314 C78.3677083,60.5087077 80.4020833,58.695684 82.4364583,57.3359162 C84.2447917,56.2027764 86.053125,55.0696365 88.0875,54.3897527 L88.0875,54.3897527 C89.6697917,53.9364967 91.478125,53.4832408 93.2864583,53.4832408 C98.9375,53.0299849 103.232292,54.3897527 106.396875,56.2027764 C110.917708,58.695684 112.726042,62.0951035 112.726042,62.0951035 C112.726042,62.0951035 123.35,62.7749874 119.733333,84.3046441 C119.507292,84.984528 119.507292,85.6644119 119.28125,86.3442958 C121.315625,86.3442958 123.35,87.9306916 121.089583,95.6360424 C119.28125,101.754997 117.698958,103.341393 116.56875,103.568021 C116.116667,106.287557 114.986458,109.460348 113.404167,112.179884 L113.404167,123.058026 C113.404167,123.511282 113.630208,123.73791 114.082292,123.964538 C117.246875,125.550934 132.391667,133.256285 146.632292,145.040939 C149.11875,147.080591 150.701042,150.253382 150.701042,153.652802 L150.701042,164.530944 L150.701042,164.530944 Z M213,44.6447501 L213,59.8288238 C213,67.7608026 206.444792,74.3330136 198.533333,74.3330136 L191.978125,74.3330136 L191.978125,30.1405603 L198.533333,30.1405603 C206.444792,30.1405603 213,36.4861434 213,44.6447501 Z M213,166.11734 L213,181.301413 C213,189.233392 206.444792,195.805603 198.533333,195.805603 L191.978125,195.805603 L191.978125,151.61315 L198.533333,151.61315 C206.444792,151.61315 213,158.185361 213,166.11734 Z M213,105.381045 L213,120.565119 C213,128.497097 206.444792,135.069308 198.533333,135.069308 L191.978125,135.069308 L191.978125,90.8768551 L198.533333,90.8768551 C206.444792,90.8768551 213,97.4490661 213,105.381045 Z" id="path-2"></path>
        <filter x="-50%" y="-50%" width="200%" height="200%" filterUnits="objectBoundingBox" id="filter-3">
            <feOffset dx="0" dy="2" in="SourceAlpha" result="shadowOffsetOuter1"></feOffset>
            <feGaussianBlur stdDeviation="2" in="shadowOffsetOuter1" result="shadowBlurOuter1"></feGaussianBlur>
            <feColorMatrix values="0 0 0 0 0   0 0 0 0 0   0 0 0 0 0  0 0 0 0.5 0" type="matrix" in="shadowBlurOuter1"></feColorMatrix>
        </filter>
    </defs>
    <g id="Playground" stroke="none" stroke-width="1" fill="none" fill-rule="evenodd">
        <g id="contacts-icon" fill-rule="nonzero">
            <use fill="black" fill-opacity="1" filter="url(#filter-3)" xlink:href="#path-2"></use>
            <use fill="url(#radialGradient-1)" fill-rule="evenodd" xlink:href="#path-2"></use>
        </g>
    </g>
</svg>

<svg width="217" height="227" viewBox="0 0 217 227" xmlns="http://www.w3.org/2000/svg" xmlns:xlink="http://www.w3.org/1999/xlink"><title>contacts-icon</title><defs><radialGradient cy="0%" fx="50%" fy="0%" r="233.931%" id="c"><stop stop-color="#FFF" offset="0%"/><stop stop-color="#FAFAFA" offset="9.215%"/><stop stop-color="#FAFAFA" offset="9.215%"/><stop stop-color="#FFF" offset="23.372%"/><stop stop-color="#31A217" offset="100%"/></radialGradient><path d="M171.497 2.039H18.467C10.555 2.039 4 8.61 4 16.543V206.23c0 7.932 6.555 14.505 14.467 14.505h153.03c7.911 0 14.467-6.573 14.467-14.505V16.543c0-7.932-6.556-14.504-14.467-14.504zM150.7 164.53c0 2.72-2.26 4.986-4.973 4.986H44.461c-2.712 0-4.972-2.267-4.972-4.986v-10.652c0-3.399 1.582-6.572 4.068-8.611 14.24-11.785 29.612-19.49 32.55-21.077.452-.226.452-.453.452-.906v-10.878c-1.582-2.947-2.712-5.893-3.164-8.612-1.13 0-2.713-1.813-4.521-7.932-2.26-7.706-.226-9.292 1.808-9.292-.226-.68-.452-1.36-.452-2.04-.678-3.852-.904-7.478 0-10.878 1.13-4.532 3.617-8.385 6.33-11.331 1.808-1.813 3.842-3.626 5.876-4.986 1.809-1.133 3.617-2.266 5.651-2.946 1.583-.454 3.391-.907 5.2-.907 5.65-.453 9.945.907 13.11 2.72 4.52 2.493 6.329 5.892 6.329 5.892s10.624.68 7.007 22.21c-.226.68-.226 1.36-.452 2.04 2.035 0 4.069 1.586 1.809 9.291-1.809 6.119-3.391 7.705-4.521 7.932-.452 2.72-1.583 5.892-3.165 8.612v10.878c0 .453.226.68.678.907 3.165 1.586 18.31 9.291 32.55 21.076a11.218 11.218 0 0 1 4.069 8.612v10.878zM213 44.645v15.184c0 7.932-6.555 14.504-14.467 14.504h-6.555V30.141h6.555A14.44 14.44 0 0 1 213 44.645zm0 121.472v15.184c0 7.932-6.555 14.505-14.467 14.505h-6.555v-44.193h6.555c7.912 0 14.467 6.572 14.467 14.504zm0-60.736v15.184c0 7.932-6.555 14.504-14.467 14.504h-6.555V90.877h6.555c7.912 0 14.467 6.572 14.467 14.504z" id="b"/><filter x="-50%" y="-50%" width="200%" height="200%" filterUnits="objectBoundingBox" id="a"><feOffset dy="2" in="SourceAlpha" result="shadowOffsetOuter1"/><feGaussianBlur stdDeviation="2" in="shadowOffsetOuter1" result="shadowBlurOuter1"/><feColorMatrix values="0 0 0 0 0 0 0 0 0 0 0 0 0 0 0 0 0 0 0.5 0" in="shadowBlurOuter1"/></filter></defs><g fill-rule="nonzero" fill="none"><use fill="#000" filter="url(#a)" xlink:href="#b"/><use fill="url(#c)" fill-rule="evenodd" xlink:href="#b"/></g></svg>
